COLOR/action 16/16/document-print.svg

<svg height="16" width="16" xmlns="http://www.w3.org/2000/svg" xmlns:xlink="http://www.w3.org/1999/xlink"><linearGradient id="a" gradientTransform="matrix(1.0714291 0 0 1 -343.96443 -236.00001)" gradientUnits="userSpaceOnUse" x1="329" x2="329" y1="239" y2="249"><stop offset="0" stop-color="#cdcdcd"/><stop offset="1" stop-color="#d9d9d9"/></linearGradient><path d="m15.500023 9.9999704c0 2.5000296-1.04816 2.4708696-3.75003 2.5000296h-7.4999397c-2.7019-.0291-3.75002996 0-3.75002996-2.5000296v-5.00013c0-2.50002 1.04812996-2.47087 3.75002996-2.50002h7.4999397c2.70187.0291 3.75003 0 3.75003 2.50002z" fill="url(#a)"/><path d="m15.499993 9.9999704c0 2.5000296-1.04816 2.4708696-3.75003 2.5000296h-7.4999297c-2.70189-.0291-3.75002996 0-3.75002996-2.5000296v-5.00013c0-2.50002 1.04813996-2.47087 3.75002996-2.50002h7.4999297c2.70187.0291 3.75003 0 3.75003 2.50002z" fill="none" stroke="#757575" stroke-width=".5"/><path d="m.73501111 9.0000004v.9477918c0 2.3695088 1.01493759 2.3418998 3.62868579 2.3694798h7.2535621c2.613729-.02768 3.628686.000029 3.628686-2.3694798v-.9477918z" opacity=".2" stroke-width="1.055678"/><path d="m4 .5a.50005.50005 0 0 0 -.5.5v4h.5 8 .5v-4a.50005.50005 0 0 0 -.5-.5h-1.142578-5.7148439zm.5 1h.6425781 5.7148439.642578v3h-7zm-1 9.5v4a.50005.50005 0 0 0 .5.5h1.1425781 5.7148439 1.142578a.50005.50005 0 0 0 .5-.5v-4h-.5v1h-.5v2.5h-.642578-5.7148439-.6425781v-2.5h-.5v-1z" fill="#757575"/><path d="m5.1428533 1.0000004h-1.14284l-.00001 4h7.9999997l.00001-4h-1.14288zm-1.14284 9.9999996v4h1.14284 5.7142797 1.14288v-4z" fill="#faf8f6"/><rect fill="#939393" height="1" opacity=".5" rx=".196429" ry=".194443" width="6" x="5.000044" y="12"/><rect fill="#46a926" height="1" rx=".392857" width="1" x="12.999983" y="7"/><rect fill="#f34f17" height="1" rx=".392857" width="1" x="12.000013" y="7"/><rect fill="#f22c42" height="1" rx=".392853" ry=".392857" width="1" x="11.000013" y="7"/><path d="m.78406782 8h14.42534318l.03814 1h-14.50162382z" fill="#fff" opacity=".2"/></svg>

<?xml version="1.0" encoding="UTF-8" standalone="no"?>
<svg
   xmlns:dc="http://purl.org/dc/elements/1.1/"
   xmlns:cc="http://creativecommons.org/ns#"
   xmlns:rdf="http://www.w3.org/1999/02/22-rdf-syntax-ns#"
   xmlns:svg="http://www.w3.org/2000/svg"
   xmlns="http://www.w3.org/2000/svg"
   xmlns:sodipodi="http://sodipodi.sourceforge.net/DTD/sodipodi-0.dtd"
   xmlns:inkscape="http://www.inkscape.org/namespaces/inkscape"
   height="16"
   width="16"
   version="1.1"
   id="svg27"
   sodipodi:docname="document-print.svg"
   inkscape:version="0.92.4 (5da689c313, 2019-01-14)">
  <metadata
     id="metadata33">
    <rdf:RDF>
      <cc:Work
         rdf:about="">
        <dc:format>image/svg+xml</dc:format>
        <dc:type
           rdf:resource="http://purl.org/dc/dcmitype/StillImage" />
      </cc:Work>
    </rdf:RDF>
  </metadata>
  <defs
     id="defs31" />
  <sodipodi:namedview
     pagecolor="#ffffff"
     bordercolor="#808080"
     borderopacity="1"
     objecttolerance="10"
     gridtolerance="10"
     guidetolerance="10"
     inkscape:pageopacity="0"
     inkscape:pageshadow="2"
     inkscape:window-width="1920"
     inkscape:window-height="1016"
     id="namedview29"
     showgrid="true"
     inkscape:zoom="52.437501"
     inkscape:cx="7.9999982"
     inkscape:cy="7.9999998"
     inkscape:window-x="0"
     inkscape:window-y="27"
     inkscape:window-maximized="1"
     inkscape:current-layer="svg27">
    <inkscape:grid
       type="xygrid"
       id="grid843" />
  </sodipodi:namedview>
  <linearGradient
     id="a"
     gradientTransform="matrix(1.0714291 0 0 1 -343.96443 -236.00001)"
     gradientUnits="userSpaceOnUse"
     x1="329"
     x2="329"
     y1="239"
     y2="249">
    <stop
       offset="0"
       stop-color="#cdcdcd"
       id="stop2" />
    <stop
       offset="1"
       stop-color="#d9d9d9"
       id="stop4" />
  </linearGradient>
  <path
     d="m15.500023 9.9999704c0 2.5000296-1.04816 2.4708696-3.75003 2.5000296h-7.4999397c-2.7019-.0291-3.75002996 0-3.75002996-2.5000296v-5.00013c0-2.50002 1.04812996-2.47087 3.75002996-2.50002h7.4999397c2.70187.0291 3.75003 0 3.75003 2.50002z"
     fill="url(#a)"
     id="path7"
     style="fill:#cdcdcd;fill-opacity:1" />
  <path
     d="m15.499993 9.9999704c0 2.5000296-1.04816 2.4708696-3.75003 2.5000296h-7.4999297c-2.70189-.0291-3.75002996 0-3.75002996-2.5000296v-5.00013c0-2.50002 1.04813996-2.47087 3.75002996-2.50002h7.4999297c2.70187.0291 3.75003 0 3.75003 2.50002z"
     fill="none"
     stroke="#757575"
     stroke-width="1.000007"
     id="path9"
     style="stroke-width:0.5;stroke-miterlimit:4;stroke-dasharray:none" />
  <path
     d="m 0.73501111,9.0000004 v 0.9477918 c 0,2.3695088 1.01493759,2.3418998 3.62868579,2.3694798 h 7.2535621 c 2.613729,-0.02768 3.628686,2.9e-5 3.628686,-2.3694798 V 9.0000004 Z"
     id="path11"
     inkscape:connector-curvature="0"
     style="opacity:0.2;stroke-width:1.05567849" />
  <path
     style="color:#000000;font-style:normal;font-variant:normal;font-weight:normal;font-stretch:normal;font-size:medium;line-height:normal;font-family:sans-serif;font-variant-ligatures:normal;font-variant-position:normal;font-variant-caps:normal;font-variant-numeric:normal;font-variant-alternates:normal;font-feature-settings:normal;text-indent:0;text-align:start;text-decoration:none;text-decoration-line:none;text-decoration-style:solid;text-decoration-color:#000000;letter-spacing:normal;word-spacing:normal;text-transform:none;writing-mode:lr-tb;direction:ltr;text-orientation:mixed;dominant-baseline:auto;baseline-shift:baseline;text-anchor:start;white-space:normal;shape-padding:0;clip-rule:nonzero;display:inline;overflow:visible;visibility:visible;opacity:1;isolation:auto;mix-blend-mode:normal;color-interpolation:sRGB;color-interpolation-filters:linearRGB;solid-color:#000000;solid-opacity:1;vector-effect:none;fill:#757575;fill-opacity:1;fill-rule:nonzero;stroke:none;stroke-width:1;stroke-linecap:round;stroke-linejoin:round;stroke-miterlimit:4;stroke-dasharray:none;stroke-dashoffset:0;stroke-opacity:1;color-rendering:auto;image-rendering:auto;shape-rendering:auto;text-rendering:auto;enable-background:accumulate"
     d="M 4 0.5 A 0.50005 0.50005 0 0 0 3.5 1 L 3.5 5 L 4 5 L 12 5 L 12.5 5 L 12.5 1 A 0.50005 0.50005 0 0 0 12 0.5 L 10.857422 0.5 L 5.1425781 0.5 L 4 0.5 z M 4.5 1.5 L 5.1425781 1.5 L 10.857422 1.5 L 11.5 1.5 L 11.5 4.5 L 4.5 4.5 L 4.5 1.5 z M 3.5 11 L 3.5 15 A 0.50005 0.50005 0 0 0 4 15.5 L 5.1425781 15.5 L 10.857422 15.5 L 12 15.5 A 0.50005 0.50005 0 0 0 12.5 15 L 12.5 11 L 12 11 L 12 12 L 11.5 12 L 11.5 14.5 L 10.857422 14.5 L 5.1425781 14.5 L 4.5 14.5 L 4.5 12 L 4 12 L 4 11 L 3.5 11 z "
     id="path857" />
  <path
     d="m5.1428533 1.0000004h-1.14284l-.00001 4h7.9999997l.00001-4h-1.14288zm-1.14284 9.9999996v4h1.14284 5.7142797 1.14288v-4z"
     fill="#faf8f6"
     id="path15" />
  <rect
     fill="#939393"
     height="1"
     opacity=".5"
     rx=".196429"
     ry=".194443"
     width="6"
     x="5.000044"
     y="12"
     id="rect17" />
  <rect
     fill="#46a926"
     height="1"
     rx=".392857"
     width="1"
     x="12.999983"
     y="7"
     id="rect19" />
  <rect
     fill="#f34f17"
     height="1"
     rx=".392857"
     width="1"
     x="12.000013"
     y="7"
     id="rect21" />
  <rect
     fill="#f22c42"
     height="1"
     rx=".392853"
     ry=".392857"
     width="1"
     x="11.000013"
     y="7"
     id="rect23" />
  <path
     d="M 0.78406782,8 H 15.209411 l 0.03814,1 H 0.74592718 Z"
     id="path25"
     inkscape:connector-curvature="0"
     style="opacity:0.2;fill:#ffffff"
     sodipodi:nodetypes="ccccc" />
</svg>
